X:35
T:Come come sweet Molly - recollected SBG
%%VWML:SBG-1-2-723-0
F:http://www.vwml.org/record/SBG/1/2/723
Z:Original Sibelius transcriptions by M. & S. Graebe
M:6/8
I:linebreak $
K:F
V:1 treble nm="P1"
V:1
 A | (AB) A c c A | F2 G A A B | (cd) c A2 G | F4 z c | c d c f2 e | d2 d A2 B |$ cd c A A G | %8
 F3- F2 F | E2 D E2 F | G G A D2 D | ^C C D B B (A/G/) | ^F2 A !fermata!D2 =c |$ (Bd)c B2 A/G/ | %14
 c c c F2 c | cd c f2 f | d d c A2 B | AG F d2 e | f4 z2 | %19
T:Come come sweet Molly - full piano arrangement FWB
F:http://www.vwml.org/record/SBG/1/2/723
Z:Original Sibelius transcriptions by M. & S. Graebe
L:1/8
M:6/8
I:linebreak $
K:F
V:1 treble nm="Voice" snm="Voice"
V:2 treble nm="Piano" snm="Pno."
V:3 treble 
V:4 bass 
V:5 bass 
V:1
 A | AB A c c A | F2 G A A B | (cd) c A2 G | F4 z c | c d c f2 e |$ d2 d A2 B | cd c A A G | %8
w: Come|come _ swt. Molly _ Let|us be jolly _ Since|we _ are met to-|gether My|mother's _ from home &|we~are a- lone So|let's _ be merry _ to-|
 F3- F2 F | E2 D E2 F | G G A D2 D |$ ^C C D B B (A/G/) | ^F2 A !fermata!D2 =c | (Bd) c B2 A/G/ | %14
w: gether _ I'll|give you rings &|bracelets _ & things And|other _ fine trinkets _ if _|you'll be mine O|no _ kind Sir I _|
 c c c F2 c | cd c f2 f |$ d d c A2 B | AG F d2 e | f4 z z | z6 | z6 | z6 | %22
w: dare not in- cline, My|mother _ tells me I|mustn't _ a- gree My|mother _ tells me I|mustn't||||
V:2
 z | CAF CAF | DBF CAF | CAF DBF | FAc fAB | c2 c c2 c |$ DBE CAF | CAF DGE | FAc fcA | %9
 G2 (F G2 A) | DE^C DFA |$ GEA, DBG | DA^F DAG | CAF _DBG | CAF CAF | c2 c c2 c |$ DBE CAF | %17
 CAF DBG | FAc fcd | Ffe dcB | AFC DBE | FcA F2 z | %22
V:3
 x | x6 | x6 | x6 | x6 | A2 G F2 F |$ x6 | x6 | x6 | x6 | x6 |$ x6 | x6 | x6 | x6 | A2 F F2 F |$ %16
 x6 | x6 | x6 | x6 | x6 | x6 | %22
V:4
 z | F,3 F,3 | F,3 F,3 | A,,3 B,,2 C, | F,3 F,3 | F,2 E, D,2 A,, |$ B,,2 C, F,3 | A,,3 B,,2 C, | %8
 F,3 F,3 | C,3 z3 | B,,2 A,, D,3 |$ E,2 F, G,3 | D,3 D,2 E, | F,3 F,3 | F,3 z3 | F,2 E, D,2 A,, |$ %16
 B,,2 C, F,3 | C,3 C,3 | F,3 F,3 | A,3 B,3 | C3 C,3 | A,3 z3 | %22
V:5
 x | x6 | x6 | x6 | x6 | x6 |$ x6 | x6 | x6 | x6 | x6 |$ x6 | x6 | x6 | x6 | x6 |$ x6 | x6 | x6 | %19
 x6 | x6 | F,3 z3 | %22

